X: 17966
T: Hug The Bundle
R: strathspey
M: 4/4
K: Edorian
E2EB BA (3Bcd|D2DA AG(3FED|E2EB BA (3Bcd|(3efg fg edBA|
EFGA BA (3Bcd|D2DA AG(3FED|E2EB BA (3Bcd|(3efg fd e2ee||
efga beeg|f2df f2df|efga beeg|f2df e3d|
efga beeg|f2df afd2|afge fedf|edBd edBA||

